ANPOSTCRO139/ANPOSTCRO139.svg

<svg width="48" height="41" viewBox="0 0 48 41" fill="none" xmlns="http://www.w3.org/2000/svg">
<path d="M11.59 40.42L42.59 26C42.59 26 50.43 23.1 46.3 14.25" stroke="#04A66A" stroke-miterlimit="10" stroke-linecap="round"/>
<path d="M22.84 35.17L20.54 30.23" stroke="#04A66A" stroke-miterlimit="10" stroke-linecap="round"/>
<path d="M36.08 29L33.78 24.06" stroke="#04A66A" stroke-miterlimit="10" stroke-linecap="round"/>
<path d="M16.93 31.92L40.27 21C40.4128 20.9299 40.5391 20.8303 40.6408 20.708C40.7425 20.5856 40.8172 20.4432 40.86 20.29L44.58 6.29C44.6337 6.09127 44.6294 5.88133 44.5678 5.68492C44.5061 5.48852 44.3896 5.31382 44.232 5.18141C44.0744 5.04901 43.8822 4.96441 43.6781 4.93759C43.474 4.91076 43.2665 4.94282 43.08 5.03L35.82 8.46C35.5629 8.58027 35.3623 8.79525 35.26 9.06L33.34 14.35L21.13 20C21.13 20 13.34 8 2.13 12C1.96871 12.06 1.82373 12.1569 1.70672 12.2831C1.58971 12.4092 1.50393 12.5611 1.45627 12.7264C1.40861 12.8918 1.40041 13.066 1.43232 13.2351C1.46423 13.4042 1.53536 13.5634 1.64 13.7L15.64 31.56C15.7832 31.7564 15.9884 31.8988 16.2225 31.9641C16.4565 32.0294 16.7058 32.0139 16.93 31.92V31.92Z" stroke="#04A66A" stroke-linecap="round" stroke-linejoin="round"/>
<path d="M27.44 17.1L22.38 6.25" stroke="#93EB5A" stroke-miterlimit="10"/>
<path d="M29.6536 6.44778L17.8535 11.9503L21.5218 19.817L33.3219 14.3145L29.6536 6.44778Z" stroke="#04A66A" stroke-linecap="round" stroke-linejoin="round"/>
<path d="M22.039 5.43843C22.1228 4.48111 20.9151 3.59345 19.3416 3.45579C17.7681 3.31812 16.4246 3.98258 16.3408 4.9399C16.2571 5.89722 17.4647 6.78488 19.0383 6.92254C20.6118 7.06021 21.9553 6.39575 22.039 5.43843Z" stroke="#93EB5A" stroke-miterlimit="10"/>
<path d="M25.207 4.04884C26.1129 2.75496 26.2092 1.25924 25.4221 0.708043C24.6349 0.15685 23.2623 0.758915 22.3563 2.05279C21.4503 3.34667 21.354 4.8424 22.1412 5.39359C22.9284 5.94478 24.301 5.34272 25.207 4.04884Z" stroke="#93EB5A" stroke-miterlimit="10"/>
<path d="M29.2526 3.04262L15.4949 9.45796L16.8684 12.4035L30.6261 5.98812L29.2526 3.04262Z" stroke="#04A66A" stroke-linecap="round" stroke-linejoin="round"/>
</svg>

<svg width="48" height="41" fill="none" xmlns="http://www.w3.org/2000/svg"><path d="M11.59 40.42l31-14.42s7.84-2.9 3.71-11.75M22.84 35.17l-2.3-4.94M36.08 29l-2.3-4.94" stroke="#04A66A" stroke-miterlimit="10" stroke-linecap="round"/><path d="M16.93 31.92L40.27 21a1.13 1.13 0 00.59-.71l3.72-14a1.08 1.08 0 00-1.5-1.26l-7.26 3.43a1.1 1.1 0 00-.56.6l-1.92 5.29L21.13 20s-7.79-12-19-8a1.1 1.1 0 00-.49 1.7l14 17.86a1.08 1.08 0 001.29.36v0z" stroke="#04A66A" stroke-linecap="round" stroke-linejoin="round"/><path d="M27.44 17.1L22.38 6.25" stroke="#93EB5A" stroke-miterlimit="10"/><path d="M29.65 6.45l-11.8 5.5 3.67 7.87 11.8-5.5-3.67-7.87z" stroke="#04A66A" stroke-linecap="round" stroke-linejoin="round"/><path d="M22.04 5.44c.08-.96-1.12-1.85-2.7-1.98-1.57-.14-2.92.52-3 1.48-.08.96 1.12 1.84 2.7 1.98 1.57.14 2.92-.52 3-1.48z" stroke="#93EB5A" stroke-miterlimit="10"/><path d="M25.2 4.05c.91-1.3 1-2.8.22-3.34-.79-.55-2.16.05-3.06 1.34-.91 1.3-1 2.8-.22 3.34.79.55 2.16-.05 3.07-1.34z" stroke="#93EB5A" stroke-miterlimit="10"/><path d="M29.25 3.04L15.5 9.46l1.38 2.94L30.63 6l-1.38-2.95z" stroke="#04A66A" stroke-linecap="round" stroke-linejoin="round"/></svg>
